!!!OTL: Komm heraus, du trauerige Braut (2-37), S. 96f
!!!id: K1121
**kern
*clefG2
*k[b-]
*F:
{8f
8a
=1
4cc
8cc
8cc
=2
4cc
4dd
=3
8.cc
16b-
8b-
8b-
=4
4b-}
=5
{8cc
8b-
=6
4a
4a
=7
4g
4g
=8
4f}
=9
{8f
8a
=10
4cc
4cc
=11
4cc
8dd
8cc
=12
8.cc
16b-
8b-
8b-
=13
4b-}
=14
{8cc
8b-
=15
4a
4a
=16
4cc
4a
=17
8.a
16g
8g
8g
=18
4g}
=19
{4cc
=20
8a
8f
8f
8f
=21
4.dd
8dd
=22
8dd
8cc
8a
8cc
=23
4cc
4b-
=24
4a}
=25
{4cc
=26
8a
8f
8f
8f
=27
4.dd
8dd
=28
8dd
8cc
8a
8cc
=29
4cc
4b-
=30
4a}
==
*-
!!!minrhy: 16
!!!meters: 2/4 ]  ZZ[6
!!!cut: Komm heraus, du trauerige Braut (2-37), S. 96f
!!!reg: Luxemburg
!!!trd: KINTZELE, Guillaume: An der Ucht, Bd. 2, Luxemburg 1927
!!!rhy1: X_X_  X__X_X_  X__X__  X_.XX_X_  X__
!!!rhy2: X_X_  X__X__  X__X__  X__
!!!key: K1121  16  F 2/4 ]  ZZ[6
!!!mod: SECHSTONSKALA DUR ?]  AMBITUS[6
!!!kad: 414233
!!!akz: 5554_321_5554_3532_36653_36653_
!!!fot: 'a__b__av_c__d__d__
!!!for: 'a__b__c__bw_d__d__
!!!fok: '^a_\__^a_\__\__\__
!! PHRAS[AUFTAKTIG]
!!!fkt: Spottlied
!!!bem: in der Quelle mit einer 2. Stimme versehen
!! KINTZELE
